X:1
T:Title
%%score { ( 1 3 ) | ( 2 4 ) }
L:1/8
M:4/4
K:Eb
V:1 treble nm="Grand Piano"
V:3 treble 
V:2 bass 
V:4 bass 
V:1
 z4 z2[Q:1/4=100] [EG]2 | [FB]2 G2 E2 F2 | G4 G2 B2 | B3 B c2 A2 |[M:3/4] G6 |[M:1/4] G2 | %6
[M:4/4] [FB]2 [FB]2 G2 B2 | c4 z4 | d3 c B2 =A2 |[M:3/4] [DB]6 |[M:1/4] [FB]2 | %11
[M:4/4] B2 B2 G2 c2 | c4 B2 [EB]2 | [Ee]3 [B,EG] [CEA]2 [B,DA]2 |[M:3/4] G6 |[M:1/4] G2 | %16
[M:4/4] A2 B2 c2 d2 | e4 E2 G2 | [EB]3 [EG] [DG]2 [DF]2 |[M:3/4] E6 |] %20
V:2
 z4 z2 [E,B,]2 | [D,B,]2 [E,B,E]2 [G,B,]2 [B,D]2 | [E,B,E]4 [E,B,E]2 [G,B,E]2 | %3
 [G,B,E]3 [E,G,E] [A,E]2 [F,B,D]2 |[M:3/4] [E,B,E]6 |[M:1/4] [E,B,E]2 | %6
[M:4/4] [D,B,]2 [D,B,]2 [E,B,E]2 [G,B,D]2 | C2 z2 z4 | [F,B,F]3 [F,EF] [F,DF]2 [F,CE]2 | %9
[M:3/4] [B,,B,]6 |[M:1/4] [D,A,]2 |[M:4/4] [E,G,E]2 [E,G,E]2 [E,B,E]2 [E,A,E]2 | %12
 [E,A,E]4 [E,G,E]2 [_D,G,]2 | [C,A,]3 B,, A,,2 B,,2 |[M:3/4] [E,B,E]6 |[M:1/4] [E,E]2 | %16
[M:4/4] [F,DE]2[K:treble] [G,_DE]2 [A,CE]2 [A,B,F]2 | [G,B,E]4 [G,B,]2[K:bass] [E,B,E]2 | %18
 [B,,G,]3 [B,,B,] [B,,B,]2 [B,,A,]2 |[M:3/4] [E,G,]6 |] %20
V:3
 x8 | x8 | x8 | x8 |[M:3/4] x6 |[M:1/4] x2 |[M:4/4] x8 | z2 D2 B2 B2 | x8 |[M:3/4] x6 |[M:1/4] x2 | %11
[M:4/4] x8 | x8 | x8 |[M:3/4] x6 |[M:1/4] x2 |[M:4/4] x8 | x8 | x8 |[M:3/4] x6 |] %20
V:4
 x8 | x8 | x8 | x8 |[M:3/4] x6 |[M:1/4] x2 |[M:4/4] x8 | A,2- [F,A,]2 [G,B,E]2 [G,B,E]2 | x8 | %9
[M:3/4] x6 |[M:1/4] x2 |[M:4/4] x8 | x8 | x8 |[M:3/4] x6 |[M:1/4] x2 |[M:4/4] x2[K:treble] x6 | %17
 x6[K:bass] x2 | x8 |[M:3/4] x6 |] %20

